src/assets/duotone/Bank.svg

<svg width="24" height="24" viewBox="0 0 24 24"  xmlns="http://www.w3.org/2000/svg">
<path d="M22 19V22H2V19C2 18.45 2.45 18 3 18H21C21.55 18 22 18.45 22 19Z"  stroke="white" stroke-width="1.5" stroke-miterlimit="10" stroke-linecap="round" stroke-linejoin="round"/>
<path opacity="0.6" d="M8 11H4V18H8V11Z" />
<path opacity="0.4" d="M12 11H8V18H12V11Z" />
<path opacity="0.6" d="M16 11H12V18H16V11Z" />
<path opacity="0.4" d="M20 11H16V18H20V11Z" />
<path d="M23 22.75H1C0.59 22.75 0.25 22.41 0.25 22C0.25 21.59 0.59 21.25 1 21.25H23C23.41 21.25 23.75 21.59 23.75 22C23.75 22.41 23.41 22.75 23 22.75Z" />
<path d="M21.37 5.74982L12.37 2.14984C12.17 2.06984 11.83 2.06984 11.63 2.14984L2.63 5.74982C2.28 5.88982 2 6.29981 2 6.67981V9.99982C2 10.5498 2.45 10.9998 3 10.9998H21C21.55 10.9998 22 10.5498 22 9.99982V6.67981C22 6.29981 21.72 5.88982 21.37 5.74982ZM12 8.49982C11.17 8.49982 10.5 7.82982 10.5 6.99982C10.5 6.16982 11.17 5.49982 12 5.49982C12.83 5.49982 13.5 6.16982 13.5 6.99982C13.5 7.82982 12.83 8.49982 12 8.49982Z" />
</svg>

<?xml version="1.0" encoding="UTF-8"?>
<svg width="24" height="24" viewBox="0 0 24 24" xmlns="http://www.w3.org/2000/svg">
 <path d="m22 19v3h-20v-3c0-0.55 0.45-1 1-1h18c0.55 0 1 0.45 1 1z" stroke="#fff" stroke-linecap="round" stroke-linejoin="round" stroke-miterlimit="10" stroke-width="1.5"/>
 <path d="m8 11h-4v7h4v-7z" opacity=".6"/>
 <path d="m12 11h-4v7h4v-7z" opacity=".4"/>
 <path d="m16 11h-4v7h4v-7z" opacity=".6"/>
 <path d="m20 11h-4v7h4v-7z" opacity=".4"/>
 <path d="m23 22.75h-22c-0.41 0-0.75-0.34-0.75-0.75s0.34-0.75 0.75-0.75h22c0.41 0 0.75 0.34 0.75 0.75s-0.34 0.75-0.75 0.75z"/>
 <path d="m21.37 5.7498-9-3.6c-0.2-0.08-0.54-0.08-0.74 0l-9 3.6c-0.35 0.14-0.63 0.54999-0.63 0.92999v3.32c0 0.54998 0.45 0.99998 1 0.99998h18c0.55 0 1-0.45 1-0.99998v-3.32c0-0.38-0.28-0.78999-0.63-0.92999zm-9.37 2.75c-0.83 0-1.5-0.67-1.5-1.5s0.67-1.5 1.5-1.5 1.5 0.67 1.5 1.5-0.67 1.5-1.5 1.5z"/>
</svg>
